img/stars.svg

<svg fill="none" height="49" viewBox="0 0 531 49" width="531" xmlns="http://www.w3.org/2000/svg"><path d="m527.098 15.0977 3.603-1.5822c.088-.0879.088-.1758 0-.1758l-3.603-1.5821-1.67-3.69168c0-.08789-.088-.08789-.088 0l-1.67 3.60378-3.604 1.67c-.088 0-.088.0879 0 .1758l3.604 1.5822 1.67 3.6038h.088z" fill="#6adbc6"/><path d="m303.575 6.4 3.4-1.5v-.2l-3.4-1.4-1.5-3.3h-.2l-1.5 3.3-3.3 1.4c-.1.1-.1.2 0 .2l3.3 1.5 1.5 3.4h.2z" fill="#9691ff" opacity=".5"/><path d="m505.875 43.8621 5.075-2.2254c.032-.036.05-.0826.05-.1309s-.018-.0949-.05-.1309l-5.075-2.2254-2.277-5.1052c-.013-.0139-.028-.0251-.044-.0327-.017-.0076-.036-.0116-.054-.0116s-.037.004-.054.0116c-.016.0076-.031.0188-.044.0327l-2.277 5.0398-5.075 2.2908c-.032.036-.05.0826-.05.1309s.018.0949.05.1309l5.075 2.2254 2.277 5.0397c.087.1309.152.1309.196 0z" fill="#628bf7"/><path d="m15.2764 34.15 7.7-3.4c.053 0 .1039-.0211.1414-.0586s.0586-.0884.0586-.1414-.0211-.1039-.0586-.1414-.0884-.0586-.1414-.0586l-7.7-3.4c-.0265 0-.052-.0105-.0707-.0293-.0188-.0187-.0293-.0442-.0293-.0707l-3.5-7.7c0-.2-.2-.2-.3 0l-3.40001 7.7h-.1l-7.7999969 3.5c-.0491955.055-.0763931.1262-.0763931.2s.0271976.145.0763931.2l7.7999969 3.4h.1l3.40001 7.8c.1.2.3.2.3 0l3.5-7.7c0-.0265.0105-.052.0293-.0707.0187-.0188.0442-.0293.0707-.0293z" fill="#ff7abc"/></svg>

<svg width="531" height="49" viewBox="0 0 531 49" fill="none" xmlns="http://www.w3.org/2000/svg">
<path d="M527.098 15.0977L530.701 13.5155C530.789 13.4276 530.789 13.3397 530.701 13.3397L527.098 11.7576L525.428 8.06592C525.428 7.97803 525.34 7.97803 525.34 8.06592L523.67 11.6697L520.066 13.3397C519.978 13.3397 519.978 13.4276 520.066 13.5155L523.67 15.0977L525.34 18.7015H525.428L527.098 15.0977Z" fill="#6ADBC6"/>
<path opacity="0.5" d="M303.575 6.4L306.975 4.9V4.7L303.575 3.3L302.075 0H301.875L300.375 3.3L297.075 4.7C296.975 4.8 296.975 4.9 297.075 4.9L300.375 6.4L301.875 9.8H302.075L303.575 6.4Z" fill="#9691FF"/>
<path d="M505.875 43.8621L510.95 41.6367C510.982 41.6007 511 41.5541 511 41.5058C511 41.4575 510.982 41.4109 510.95 41.3749L505.875 39.1495L503.598 34.0443C503.585 34.0304 503.57 34.0192 503.554 34.0116C503.537 34.004 503.518 34 503.5 34C503.482 34 503.463 34.004 503.446 34.0116C503.43 34.0192 503.415 34.0304 503.402 34.0443L501.125 39.0841L496.05 41.3749C496.018 41.4109 496 41.4575 496 41.5058C496 41.5541 496.018 41.6007 496.05 41.6367L501.125 43.8621L503.402 48.9018C503.489 49.0327 503.554 49.0327 503.598 48.9018L505.875 43.8621Z" fill="#628BF7"/>
<path d="M15.2764 34.15L22.9764 30.75C23.0294 30.75 23.0803 30.7289 23.1178 30.6914C23.1553 30.6539 23.1764 30.603 23.1764 30.55C23.1764 30.497 23.1553 30.4461 23.1178 30.4086C23.0803 30.3711 23.0294 30.35 22.9764 30.35L15.2764 26.95C15.2499 26.95 15.2244 26.9395 15.2057 26.9207C15.1869 26.902 15.1764 26.8765 15.1764 26.85L11.6764 19.15C11.6764 18.95 11.4764 18.95 11.3764 19.15L7.97639 26.85H7.87639L0.0763931 30.35C0.0271976 30.405 0 30.4762 0 30.55C0 30.6238 0.0271976 30.695 0.0763931 30.75L7.87639 34.15H7.97639L11.3764 41.95C11.4764 42.15 11.6764 42.15 11.6764 41.95L15.1764 34.25C15.1764 34.2235 15.1869 34.198 15.2057 34.1793C15.2244 34.1605 15.2499 34.15 15.2764 34.15Z" fill="#FF7ABC"/>
</svg>
